packages/symbols/svgs/solid/frown-solid.svg

<svg width="16" height="16" viewBox="0 0 16 16" xmlns="http://www.w3.org/2000/svg"><g clip-path="url(#a)"><path d="M8 0C3.6 0 0 3.6 0 8s3.6 8 8 8 8-3.6 8-8-3.6-8-8-8Zm2 5c.6 0 1 .4 1 1s-.4 1-1 1-1-.4-1-1 .4-1 1-1ZM6 5c.6 0 1 .4 1 1s-.4 1-1 1-1-.4-1-1 .4-1 1-1Zm5.2 7.9c-.1 0-.2.1-.3.1-.4 0-.8-.3-.9-.7-.4-.8-1.2-1.3-2-1.3s-1.6.5-1.9 1.3c-.2.5-.8.8-1.3.6-.5-.2-.8-.8-.6-1.3C4.8 10.1 6.3 9 8 9c1.7 0 3.2 1.1 3.8 2.7.2.5-.1 1.1-.6 1.2Z"/></g><defs><clipPath id="a"><path fill="#fff" d="M0 0h16v16H0z"/></clipPath></defs></svg>

<svg width="16" height="16" viewBox="0 0 16 16" fill="none" xmlns="http://www.w3.org/2000/svg">
<g clip-path="url(#clip0_219_2045)">
<path d="M8 0C3.6 0 0 3.6 0 8C0 12.4 3.6 16 8 16C12.4 16 16 12.4 16 8C16 3.6 12.4 0 8 0ZM10 5C10.6 5 11 5.4 11 6C11 6.6 10.6 7 10 7C9.4 7 9 6.6 9 6C9 5.4 9.4 5 10 5ZM6 5C6.6 5 7 5.4 7 6C7 6.6 6.6 7 6 7C5.4 7 5 6.6 5 6C5 5.4 5.4 5 6 5ZM11.2 12.9C11.1 12.9 11 13 10.9 13C10.5 13 10.1 12.7 10 12.3C9.6 11.5 8.8 11 8 11C7.2 11 6.4 11.5 6.1 12.3C5.9 12.8 5.3 13.1 4.8 12.9C4.3 12.7 4 12.1 4.2 11.6C4.8 10.1 6.3 9 8 9C9.7 9 11.2 10.1 11.8 11.7C12 12.2 11.7 12.8 11.2 12.9Z" fill="black"/>
</g>
<defs>
<clipPath id="clip0_219_2045">
<rect width="16" height="16" fill="white"/>
</clipPath>
</defs>
</svg>
